src/img/svg/icon-guarantee.svg

<svg width="32" height="31" viewBox="0 0 32 31" fill="none" xmlns="http://www.w3.org/2000/svg">
<path d="M31.9949 13.6682C31.9676 13.4165 31.8344 13.187 31.6267 13.0342L29.0918 11.1691L30.0141 8.21307C30.0897 7.97083 30.0587 7.70905 29.9284 7.48988C29.7981 7.27071 29.5802 7.11371 29.3265 7.05616L26.2298 6.3538L25.8345 3.28899C25.802 3.03789 25.6641 2.81096 25.4533 2.66222C25.2426 2.51341 24.9779 2.45616 24.722 2.50376L21.599 3.08561L19.9543 0.44196C19.8196 0.225405 19.5985 0.0725956 19.3437 0.02002C19.0888 -0.0326163 18.8229 0.019595 18.6092 0.164208L16 1.92968L13.3907 0.164208C13.1768 0.019595 12.911 -0.0326163 12.6561 0.02002C12.4012 0.0726563 12.1802 0.225344 12.0455 0.442021L10.401 3.08573L7.27803 2.50388C7.02222 2.45635 6.7574 2.51353 6.54659 2.66234C6.33584 2.81114 6.19784 3.03795 6.16547 3.28912L5.77015 6.35392L2.6734 7.05628C2.41965 7.11384 2.20184 7.27083 2.07153 7.49C1.94121 7.70923 1.91021 7.97095 1.98578 8.21313L2.9079 11.1692L0.373339 13.0342C0.165651 13.187 0.0324009 13.4165 0.00515092 13.6682C-0.0220366 13.9199 0.0592134 14.1713 0.229651 14.3628L2.30971 16.699L0.775089 19.4043C0.649401 19.6259 0.623714 19.8882 0.704214 20.129C0.784714 20.3696 0.964214 20.5672 1.20009 20.6747L4.07859 21.987L3.80928 25.0648C3.78721 25.317 3.87359 25.5668 4.04796 25.7549C4.22228 25.943 4.46903 26.0525 4.72947 26.0576L7.90884 26.1192L8.9514 29.0372C9.03684 29.2763 9.22034 29.4704 9.45834 29.5733C9.6964 29.6762 9.96766 29.6788 10.2077 29.5806L13.138 28.3808L15.3125 30.6346C15.4906 30.8193 15.7395 30.9241 16.0001 30.9241C16.2607 30.9241 16.5095 30.8193 16.6877 30.6346L18.8622 28.3808L21.7923 29.5806C22.0323 29.6788 22.3036 29.6762 22.5417 29.5733C22.7797 29.4704 22.9632 29.2764 23.0486 29.0372L24.0913 26.1192L27.2705 26.0576C27.5311 26.0526 27.7778 25.943 27.9521 25.7549C28.1264 25.5668 28.2128 25.3171 28.1908 25.0648L27.9215 21.987L30.8002 20.6747C31.036 20.5672 31.2155 20.3696 31.296 20.1289C31.3765 19.8883 31.3509 19.6259 31.2251 19.4042L29.6903 16.699L31.7705 14.3628C31.9408 14.1713 32.022 13.9199 31.9949 13.6682ZM27.7226 17.0242L29.0888 19.4324L26.5263 20.6006C26.1692 20.7634 25.9543 21.1251 25.9877 21.5069L26.2275 24.2466L23.3973 24.3014C23.003 24.3091 22.6552 24.5545 22.5258 24.9164L21.5976 27.5141L18.9892 26.446C18.6257 26.2971 18.2053 26.3839 17.9356 26.6635L16 28.6698L14.0643 26.6635C13.8824 26.4748 13.6318 26.3739 13.3765 26.3739C13.2533 26.3739 13.129 26.3974 13.0107 26.4459L10.4022 27.514L9.47403 24.9164C9.34466 24.5544 8.99697 24.3089 8.60253 24.3013L5.77222 24.2465L6.01197 21.5067C6.0454 21.125 5.83047 20.7633 5.4734 20.6005L2.91103 19.4322L4.27715 17.024C4.46753 16.6884 4.42253 16.2732 4.16459 15.9833L2.3129 13.9037L4.56928 12.2434C4.88372 12.012 5.01653 11.615 4.90215 11.2482L4.08128 8.61673L6.83797 7.99153C7.22209 7.90441 7.50965 7.59406 7.55878 7.21389L7.91065 4.48567L10.6907 5.00359C11.0781 5.07583 11.4708 4.90591 11.6748 4.57795L13.1387 2.22461L15.4615 3.79617C15.7852 4.01516 16.215 4.01516 16.5387 3.79617L18.8613 2.22461L20.3253 4.57801C20.5293 4.90591 20.9218 5.07583 21.3094 5.00359L24.0895 4.48567L24.4413 7.21389C24.4904 7.59406 24.778 7.90441 25.1622 7.99153L27.9188 8.61673L27.0978 11.2482C26.9834 11.6149 27.1162 12.012 27.4307 12.2434L29.6872 13.9037L27.8354 15.9833C27.5772 16.2733 27.5322 16.6886 27.7226 17.0242Z" fill="#0085FF"/>
<path d="M16 6.70271C11.0277 6.70271 6.98262 10.6321 6.98262 15.4619C6.98262 20.2917 11.0279 24.2211 16 24.2211C20.9721 24.2211 25.0174 20.2917 25.0174 15.4619C25.0174 10.6322 20.9722 6.70271 16 6.70271ZM16 22.3904C12.0671 22.3904 8.86737 19.2823 8.86737 15.4619C8.86737 11.6416 12.0671 8.53351 16 8.53351C19.9329 8.53351 23.1326 11.6416 23.1326 15.4619C23.1326 19.2823 19.9329 22.3904 16 22.3904Z" fill="#0085FF"/>
<path d="M19.6945 12.8537C19.3264 12.4962 18.7297 12.4962 18.3617 12.8537L14.9906 16.1283L13.6382 14.8146C13.2702 14.4571 12.6735 14.4572 12.3055 14.8146C11.9375 15.1721 11.9375 15.7517 12.3055 16.1092L14.3243 18.0701C14.5083 18.2489 14.7495 18.3382 14.9907 18.3382C15.2318 18.3382 15.473 18.2488 15.657 18.0701L19.6945 14.1483C20.0625 13.7909 20.0625 13.2112 19.6945 12.8537Z" fill="#0085FF"/>
</svg>

<svg xmlns="http://www.w3.org/2000/svg" width="32" height="31" fill="none"><path fill="#0085FF" d="M31.995 13.668a.91.91 0 00-.368-.634l-2.535-1.865.922-2.956a.892.892 0 00-.086-.723.94.94 0 00-.602-.434l-3.096-.702-.396-3.065a.911.911 0 00-.38-.627.964.964 0 00-.732-.158l-3.123.582L19.954.442a.942.942 0 00-.61-.422.965.965 0 00-.735.144L16 1.93 13.39.164a.965.965 0 00-.734-.144.941.941 0 00-.61.422L10.4 3.086l-3.123-.582a.965.965 0 00-.731.158.91.91 0 00-.382.627L5.77 6.354l-3.097.702a.94.94 0 00-.601.434.892.892 0 00-.086.723l.922 2.956-2.535 1.865a.899.899 0 00-.144 1.329l2.08 2.336-1.534 2.705a.892.892 0 00-.07.725c.08.24.26.438.495.546l2.879 1.312-.27 3.078a.899.899 0 00.239.69.955.955 0 00.681.303l3.18.061 1.042 2.918c.086.24.27.433.507.536.238.103.51.106.75.008l2.93-1.2 2.175 2.254c.178.184.426.29.687.29.26 0 .51-.106.688-.29l2.174-2.254 2.93 1.2c.24.098.512.095.75-.008a.925.925 0 00.507-.536l1.042-2.918 3.18-.061a.954.954 0 00.681-.303.9.9 0 00.239-.69l-.27-3.078 2.88-1.312a.925.925 0 00.495-.546.892.892 0 00-.07-.725L29.69 16.7l2.08-2.336a.9.9 0 00.225-.695zm-4.272 3.356l1.366 2.408-2.563 1.169a.912.912 0 00-.538.906l.24 2.74-2.83.054a.94.94 0 00-.872.615l-.928 2.598-2.609-1.068a.962.962 0 00-1.053.217L16 28.67l-1.936-2.007a.955.955 0 00-1.053-.217l-2.609 1.068-.928-2.598a.94.94 0 00-.871-.615l-2.83-.054.239-2.74a.912.912 0 00-.539-.907l-2.562-1.168 1.366-2.408a.895.895 0 00-.112-1.04l-1.852-2.08 2.256-1.66a.9.9 0 00.333-.996l-.82-2.631 2.756-.625a.926.926 0 00.72-.778l.353-2.728 2.78.518a.953.953 0 00.984-.426l1.464-2.353 2.322 1.571a.965.965 0 001.078 0l2.322-1.571 1.464 2.353a.953.953 0 00.984.426l2.78-.518.352 2.728c.05.38.337.69.721.778l2.757.625-.821 2.631a.9.9 0 00.333.995l2.256 1.66-1.852 2.08a.895.895 0 00-.112 1.041z"/><path fill="#0085FF" d="M16 6.703c-4.972 0-9.017 3.93-9.017 8.759 0 4.83 4.045 8.76 9.017 8.76 4.972 0 9.017-3.93 9.017-8.76S20.972 6.702 16 6.702zm0 15.687c-3.933 0-7.133-3.108-7.133-6.928s3.2-6.928 7.133-6.928 7.133 3.108 7.133 6.928-3.2 6.928-7.133 6.928z"/><path fill="#0085FF" d="M19.695 12.854a.962.962 0 00-1.333 0l-3.371 3.274-1.353-1.313a.962.962 0 00-1.332 0 .897.897 0 000 1.294l2.018 1.961a.954.954 0 00.667.268c.24 0 .482-.09.666-.268l4.038-3.922a.897.897 0 000-1.294z"/></svg>
